X: 19464
T: Jackson's Gamble
R: hornpipe
M: 4/4
K: Dmajor
|:AF|DAFA BGBd|gega bgec|AcBc dBef|edcB A2 AF|
DAFA BGBd|gega bgec|AcBc BAGF|E2 D2 D2:|
|:Ac|dedc BGBd|ecAF EGBd|Bdfa gagf|edcB A2 Ac|
dedc BGBd|ecAF EGBd|AcBc BAGF|E2 D2 D2:|

